X:1
T:Title
%%score { ( 1 3 ) | 2 }
L:1/8
Q:1/4=72
M:2/4
K:Ab
V:1 treble nm="Grand Piano"
V:3 treble 
V:2 bass 
V:1
 [Ec][Ec] BB | A2 [CE]2 | [DF][EG] [EA][Ec] | B4 | z2 .F[Ec][K:bass] | B2[K:treble] z2 | %6
w: Johann~C.~H.~Rinck * * *||||||
 [FA][Fd] [Ec][DB] |[M:6/4] .[CA]6 z6 |[M:2/4] [DA]4 | [CA]4 |] %10
w: ||||
V:2
 [A,,A,][C,A,] [E,G,E][E,G,D] | [A,C]2 [A,,A,]2 | [D,A,][D,B,] [C,A,][A,,A,] | [E,G,E]4 | %4
 [A,E][F,A,F] .[B,,A,].[C,A,] | .[E,G,E]2 [C,A,]2 | [D,A,][B,,B,] [E,A,][E,G,] | %7
[M:6/4] .[A,,A,]6 z6 |[M:2/4] [D,F,]4 | [A,,E,]4 |] %10
V:3
 x4 | x4 | x4 | x4 | cc .d/-.[G,Ed][K:bass]D,/ | z D,[K:treble] [Ee]2 | x4 |[M:6/4] x12 | %8
[M:2/4] x4 | x4 |] %10

